X:1
T:Polonaise.
T:04- Polonaise.
T:Helm 1/4 (BWV Anh. 125)
T:4 Pieces for Anna Magdalena Bach
T:in G minor
T:Carl Philipp Emmanuel Bach
C:Helm 114 (BWV Anh. 125)
%%score { ( 1 3 ) | ( 2 4 ) }
L:1/8
Q:1/4=100
M:3/4
K:Bb
V:1 treble nm="Piano" snm="Pno."
V:3 treble 
V:2 bass 
V:4 bass 
V:1
 G/A/B A/^F/G E2 | G/A/B A/^F/G D2 | x2 edcB | AA/B/ A4 | G/A/B A/^F/G E2 | G/A/B A/^F/G D2 | %6
 x2 edcB | AG/^F/ G4 |: x4 g2 | x4 =f2 | g g2 f ed | c c/d/ c4 | e/d/e e/d/e e2- | e/d/e e/d/e e2 | %14
 dd/_a/ ee/f/ dd/e/ | cc/=B/ [Gc]4 | G/c/e G/c/e d2 | F/B/d E/B/d c2 | E/A/c D/A/c- c/B/A/G/ | %19
 ^c/d/B/G/ A/^F/G/A/ D2 | G/A/B A/^F/G E2 | G/A/B A/^F/G D2 | x2 ed cB | AG/^F/ G4 :| %24
V:2
 G,/A,/B, A,/^F,/G, E,2 | G,/A,/B, A,/^F,/G, D,2 | G,2 z2 z2 | D,2- D,/C,/D,/=E,/ ^F,/E,/F,/D,/ | %4
 G,/A,/B, A,/^F,/G, E,2 | G,/A,/B, A,/^F,/G, D,2 | [B,,G,]2 C,2 C,2 | D,D,, G,,B,,/D,/ G,2 |: %8
 B,/C/D C/A,/B, E,2 | B,/C/D C/A,/B, D,2 | E,2 E,,2 E,2 | F,2- F,/E,/F,/G,/ F,/E,/F,/D,/ | %12
 C,2 C2- C/B,/_A,/G,/ | _A,,2 _A,2- A,/G,/F,/E,/ | F,2 G,2 G,,2 | %15
 C,,2- C,,/C,/D,/E,/ F,/G,/A,/=B,/ | CB,A,F, B,,/F,/B,- | B,A,G,E, A,,/E,/A,- | A,G,^F,D,G,,G, | %19
 D,2 D,,2- D,,/C/B,/A,/ | G,/A,/B, A,/^F,/G, E,2 | G,/A,/B, A,/^F,/G, D,2 | G,2 x4 | %23
 D,D,, G,,B,,/D,/ G,2 :| %24
V:3
 x6 | x6 | dd/G/ cBAG | ^FF/G/ F2 D2 | x6 | x6 | dd/G/ cBAG | ^F2 [B,D]4 |: B/c/d c/A/B B2 | %9
 B/c/d c/A/B B2 | e e2 d cB | A A/B/ A2 F2 | c/=B/c c/B/c c2- | c/=B/c c/B/c c2- | c=B c2 B2 | %15
 [EG=e]2 E4 | x6 | x6 | x6 | x6 | x6 | x6 | dd/G/ cB AG | ^F2 [B,D]4 :| %24
V:4
 x6 | x6 | B,,2 C,2 C,2 | x6 | x6 | x6 | x6 | x6 |: x6 | x6 | x6 | x6 | x6 | x6 | x6 | x6 | x6 | %17
 x6 | x6 | x6 | x6 | x6 | B,,2 C,2 C,2 | x6 :| %24

